!!!COS: Dunstable, John (???)
!!!COS: Power, Leonel (???)
!!!OTL: Salve Mater salvatoris
!!!ONB: Conflicting Attribution No. 2 (LP17 OR JD62).
!!!YOR: from: "Musica Britannica" Vol. 8, edited by Manfred F. Bukofzer,
!!!YOR: 2nd rev. ed. (prepared by Margaret Bent, Ian Bent & Brian Trowell), pp.150-151
!!!YOO: Royal Musical Association (London)
!!!YOY: 1970
**kern	**kern	**kern
*ICvox	*ICvox	*ICvox
! tenor	! contratenor	! discantus
*M3/4	*M3/4	*M3/4
=1	=1	=1
*>A	*>A	*>A
!! Section 'A'; (O) mensuration.
[2.c	2.r	2cc
.	.	4a
=2	=2	=2
2.c]	2.c	4g
.	.	2cc
=3	=3	=3
2G	2d	4b-
.	.	4.a
[4B-	4B-	.
.	.	8g
=4	=4	=4
4B-]	4G	[4g
2A	2c	12g]
.	.	12f#x
.	.	12g
.	.	8f#x
.	.	8e
=5	=5	=5
[2.G	2d	2g
.	4g	4e
=6	=6	=6
2.G]	[4g	2r
.	12g]	.
.	12f	.
.	12g	.
.	8e	4g
.	8c	.
=7	=7	=7
[2.c	4c	4.a
.	4r	.
.	.	16g
.	.	16a
.	8g	8g
.	8a	8e
=8	=8	=8
2.c]	4g	4e
.	8e	4r
.	4e	.
.	.	8e
.	8c	8f
=9	=9	=9
4G	8.d	4g
.	16e	.
4r	4c	8e
.	.	8c
4B-	4G	4d
=10	=10	=10
2.c	2A	8c
.	.	8.e
.	.	16f
.	.	8g
.	[4F	8.a
.	.	16g
=11	=11	=11
2.F	4F]	8a
.	.	8b
.	4r	4cc
.	4c	8b
.	.	[8a
=12	=12	=12
2r	4c	8a]
.	.	8g
.	4A	8f
.	.	16e
.	.	16f
4En	4B-	4g
=13	=13	=13
4F	4c	4.a
4E	4r	.
.	.	8g
[4F	4A	8.f
.	.	16e
=14	=14	=14
4F]	4c	8c
.	.	8.f
2G	4.B-	.
.	.	16e
.	.	8f
.	.	8g
.	16A	8e
.	16B-	.
=15	=15	=15
[2.F	2c	2.f
.	4d	.
=16	=16	=16
2.F]	4.f	2r
.	8e	.
.	8d	4a
.	8c	.
=17	=17	=17
2.C	4e	4.g
.	4c	.
.	.	4e
.	4g	.
.	.	8c
=18	=18	=18
2c	4.a	4c
.	.	4r
.	4g	.
[4e	.	4cc
.	8e	.
=19	=19	=19
4e]	4e	[4cc
2d	4r	12cc]
.	.	12b
.	.	12cc
.	8.f	6b
.	.	12a
.	16g	.
=20	=20	=20
[2.c	2e	4cc
.	.	8b
.	.	4a
.	4c	.
.	.	8g
=21	=21	=21
2.c]	2r	4g
.	.	4e
.	4e	8g
.	.	8f
=22	=22	=22
2d	4f	4d
.	4d	4.a
4c	8e	.
.	8d	8g
=23	=23	=23
4B-	4.d	2g
2A	.	.
.	4c	.
.	.	4f#x
.	16Bnx	.
.	16c	.
=24	=24	=24
[2.G	2d	2g
.	4g	4e
=25	=25	=25
2.G]	4.g	2r
.	8e	.
.	8f	4e
.	8e	.
=26	=26	=26
2.c	4c	4e
.	4r	4.a
.	4F	.
.	.	8g
=27	=27	=27
2r	4B-	4.g
.	4c	.
.	.	8e
4B-	8.d	8f
.	.	8e
.	16f	.
=28	=28	=28
4.c	4e	4c
.	4c	4r
8A	.	.
8B-	4r	8d
8A	.	8c
=29	=29	=29
4F	4.f	8f
.	.	8g
4r	.	8.a
.	8d	.
.	.	16b
4F	16f	4cc
.	16e	.
.	16d	.
.	16c	.
=30	=30	=30
4.G	8.Bnx	8b
.	.	4g
.	16c	.
.	8d	.
8E	4e	8b-
8F	.	8a
8E	8c	[8g
=31	=31	=31
4C	[4c	8g]
.	.	8e
2D	12c]	4d
.	12Bnx	.
.	12c	.
.	6Bnx	8.f
.	12A	.
.	.	16g
=32	=32	=32
[2.C	[2.c	4e
.	.	4.a
.	.	8g
=33	=33	=33
2.C]	4c]	4g
.	4.A	4r
.	.	4cc
.	8F	.
=34	=34	=34
2r	4F	4.cc
.	4C	.
.	.	16b
.	.	16cc
4F	[4c	8dd
.	.	8cc
=35	=35	=35
2F	4c]	4.a
.	4A	.
.	.	8g
4G	4r	4e
=36	=36	=36
4A	4A	8f
.	.	4g
2B-	4G	.
.	.	8f
.	4B-	4d
=37	=37	=37
2c	4A	4c
.	2c	4r
4F	.	4cc
=38	=38	=38
4c	4F	4.cc
2d	4.f	.
.	.	8a
.	.	4b
.	8e	.
=39	=39	=39
2.c	4e	8cc
.	.	16b
.	.	16cc
.	4r	8dd
.	.	4cc
.	4F	.
.	.	8a
=40	=40	=40
4c	4A	4a
4.B-	8c	8g
.	4d	8.b-
.	.	16a
8F	8c	16g
.	.	16f
=41	=41	=41
4A	4A	8e
.	.	8.g
2G	8c	.
.	.	16f
.	8d	4f
.	8Bnx	.
.	16A	8e
.	16Bnx	.
=42	=42	=42
[2.F	[2.c	[2.f
=42a	=42a	=42a
2.F]	2.c]	2.f]
=43	=43	=43
*>B	*>B	*>B
!! Section 'B'; (C) mensuration.
*M2/2	*M2/2	*M2/2
[1c	2r	1g
.	[2C	.
=44	=44	=44
1c]	1C]	4a
.	.	4g
.	.	4a
.	.	4cc
=45	=45	=45
[1G	4Bnx	2b
.	4.d	.
.	.	4a
.	8e	.
.	4d	[4g
=46	=46	=46
1G]	2Bnx	4g]
.	.	4e
.	4G	8g
.	.	8f
.	4Bnx	8e
.	.	16f
.	.	16d
=47	=47	=47
4r	4c	2c
4c	2A	.
2c	.	4r
.	4r	4e
=48	=48	=48
*M3/2	*M3/2	*M3/2
4r	4G	2g
4G	2C	.
4c	.	4a
4Bnx	4r	2g
2c	2C	.
.	.	[4cc
=49	=49	=49
*M2/2	*M2/2	*M2/2
1F	4.c	4cc]
.	.	2a
.	8d	.
.	8c	.
.	8B-	.
.	4A	4cc
=50	=50	=50
1G	4Bnx	2b
.	8d	.
.	4e	.
.	.	4r
.	8d	.
.	4Bnx	4b
=51	=51	=51
!! Mensuration change to (O) in discantus only.
[1F	8c	3cc
.	4d	.
.	.	6b
.	8c	.
.	4A	6dd
.	.	4cc
.	4r	.
.	.	12a
=52	=52	=52
1F]	4A	6a
.	.	3f
.	4D	.
.	4.A	6d
.	.	4f
.	8B-	.
.	.	12g
=53	=53	=53
[1C	4.c	6e
.	.	3a
.	8A	.
.	8c	3g
.	16Bnx	.
.	16G	.
.	8.A	.
.	.	[6cc
.	16G	.
=54	=54	=54
1C]	4E	6cc]
.	.	6a
.	4r	.
.	.	4g
.	4G	.
.	.	12e
.	.	6g
.	4F	.
.	.	6f
=55	=55	=55
!! Return to (C) mensuration in upper voice.
4r	2.A	2d
4F	.	.
2F	.	4r
.	[4c	4a
=56	=56	=56
4r	4c]	2a
4A	2F	.
2A	.	4r
.	4A	4e
=57	=57	=57
4r	4G	4.e
4c	4r	.
.	.	8f
4c	4c	4g
4Bn	4d	[4a
=58	=58	=58
4c	2e	8a]
.	.	8g
8Bnx	.	2cc
8c	.	.
2d	4d	.
.	4f	4b
=59	=59	=59
1c	2.e	2cc
.	.	4r
.	[4c	4a
=60	=60	=60
4r	4c]	2a
4F	4.f	.
2F	.	4r
.	8e	.
.	4c	4cc
=61	=61	=61
4r	4A	4.cc
4A	4F	.
.	.	8a
4.G	2B-	4b-x
.	.	4g
8E	.	.
=62	=62	=62
2F	2A	4a
.	.	4cc
2G	4r	2b-x
.	4B-	.
=63	=63	=63
4r	4c	2a
4A	4F	.
2G	2B-	4r
.	.	4b-x
=64	=64	=64
*M3/2	*M3/2	*M3/2
2F	4A	4cc
.	4c	4a
2G	4B-	4.g
.	4.d	.
.	.	8e
2D	.	4.f#
.	8A	.
.	4Bnx	.
.	.	8g
=65	=65	=65
*M2/2	*M2/2	*M2/2
[1C	1c	4e
.	.	2a
.	.	[4g
=66	=66	=66
1C]	4r	4g]
.	4A	2cc
.	2c	.
.	.	[4a
=67	=67	=67
1r	4F	4a]
.	4.c	2g
.	8A	.
.	4Bnx	4f
=68	=68	=68
2r	1c	1e
2c	.	.
=71	=71	=71
!! Bar number difference between Tr92 manuscript (encoded) and ModB.
1B-	2d	4g
.	.	4f
.	4f	2d
.	4d	.
=72	=72	=72
*M3/2	*M3/2	*M3/2
1c	4.a	2c
.	16g	.
.	16a	.
.	8g	4r
.	8e	.
.	2.e	4cc
4r	.	4.cc
4c	.	.
.	.	16b
.	.	16cc
=73	=73	=73
*M2/2	*M2/2	*M2/2
1F	2f	4dd
.	.	4cc
.	4r	2a
.	4f	.
=74	=74	=74
4r	4e	2g
4c	4.g	.
2c	.	4r
.	16f	.
.	16g	.
.	8a	4cc
.	8g	.
=75	=75	=75
4r	4e	4.cc
4F	2f	.
.	.	16b-x
.	.	16cc
2F	.	4a
.	4d	4f
=76	=76	=76
4r	2c	2g
4c	.	.
4c	4r	4a
4B-	4d	[4b-x
=77	=77	=77
2c	4e	8b-x]
.	.	8g
.	4c	4.cc
2d	2f	.
.	.	8a
.	.	4b
=78	=78	=78
1c	4g	2cc
.	4.a	.
.	.	4r
.	8g	.
.	8e	4cc
.	8f	.
=79	=79	=79
[1G	4.g	4.b
.	8f	8g
.	8e	4a
.	8d	.
.	4d	[4g
=80	=80	=80
1G]	2Bnx	4g]
.	.	4e
.	4r	8g
.	.	8f
.	4G	8e
.	.	8d
=81	=81	=81
2c	2C	4.e
.	.	8c
4B-	4G	4d
4c	[4A	4c
=82	=82	=82
4A	4A]	4f
4F	2c	2f
2G	.	.
.	4Bnx	4e
=83	=83	=83
[1F	2c	2f
.	4d	2r
.	[4f	.
=84	=84	=84
1F]	8f]	4.a
.	8e	.
.	8d	.
.	8c	8b
.	4d	4.cc
.	4c	.
.	.	8a
=85	=85	=85
1B-	2G	4g
.	.	4f
.	4r	2d
.	4B-	.
=86	=86	=86
2c	2A	4e
.	.	2c
4r	2F	.
4c	.	[4cc
=87	=87	=87
2d	4r	4cc]
.	4f	4b
2c	4.g	4cc
.	.	8b
.	8e	8cc
=88	=88	=88
1F	2f	4dd
.	.	2cc
.	4d	.
.	[4c	4a
=89	=89	=89
2c	4c]	2a
.	4A	.
2d	4G	4r
.	4B-	4f
=90	=90	=90
2c	2c	4.e
.	.	8f
4B-	4d	4g
4A	[4c	[4a
=91	=91	=91
2F	4c]	8a]
.	.	8f
.	4A	4.f
2G	2Bn	.
.	.	8d
.	.	8e
.	.	16d
.	.	16e
=92	=92	=92
1F	1c	1f
==	==	==
*-	*-	*-
!!!ENC: Mark Laxton
!!!EDD: Mark Laxton
!!!YEC: Mark Laxton, 1987
!!!EMD: Reference records added by D. Huron, 2001
!!!EEV: 1.1
